build/img/export.svg

<svg width="19" height="19" viewBox="0 0 19 19" fill="none" xmlns="http://www.w3.org/2000/svg">
<path d="M12.5026 6.49794C12.8118 6.80711 13.313 6.80711 13.6222 6.49794C13.9314 6.18878 13.9314 5.68752 13.6222 5.37836L10.0597 1.81586C9.75055 1.50669 9.24929 1.50669 8.94013 1.81586L5.37763 5.37836C5.06846 5.68752 5.06846 6.18878 5.37763 6.49794C5.68679 6.80711 6.18805 6.80711 6.49721 6.49794L8.70825 4.2869V12.6673C8.70825 13.1045 9.06269 13.459 9.49992 13.459C9.93714 13.459 10.2916 13.1045 10.2916 12.6673V4.2869L12.5026 6.49794Z" fill="currentColor"/>
<path d="M3.16659 12.6673C3.16659 12.2301 2.81214 11.8757 2.37492 11.8757C1.93769 11.8757 1.58325 12.2301 1.58325 12.6673V16.6257C1.58325 17.0629 1.93769 17.4173 2.37492 17.4173H16.6249C17.0621 17.4173 17.4166 17.0629 17.4166 16.6257V12.6673C17.4166 12.2301 17.0621 11.8757 16.6249 11.8757C16.1877 11.8757 15.8333 12.2301 15.8333 12.6673V15.834H3.16659V12.6673Z" fill="currentColor"/>
</svg>

<svg width="19" height="19" viewBox="0 0 19 19" fill="none" xmlns="http://www.w3.org/2000/svg"><path d="M12.503 6.498a.792.792 0 001.12-1.12L10.06 1.816a.792.792 0 00-1.12 0L5.378 5.378a.792.792 0 101.12 1.12l2.21-2.211v8.38a.792.792 0 001.584 0v-8.38l2.21 2.21z" fill="currentColor"/><path d="M3.167 12.667a.792.792 0 00-1.584 0v3.959c0 .437.355.791.792.791h14.25a.792.792 0 00.792-.791v-3.959a.792.792 0 00-1.584 0v3.167H3.167v-3.167z" fill="currentColor"/></svg>
